X: 66
T: Vostre gracieuse acointance
N: Derived from Bus3062-Vostre_gracieuse_acointance.krn
C: Antoine Busnoys
%%abc-version 2.0
%%abcx-abcm2ps-target-version 5.9.1 (29 Sep 2008)
%%abc-creator hum2abc beta
%%abcx-conversion-date 2019/02/16 20:26:07
%%abc-edited-by Jesse Rodin
%%abc-edited-by Gage
%%abcx-initial-encoding-date 2015/05/13/
%%humdrum-veritas 3345850254
%%humdrum-veritas-data 658054197
%%linebreak <none>
%%barnumbers 0
L: 1/4
M: 3/1
Q: 1/2=120
V: 1 clef=treble
V: 2 clef=treble-8
V: 3 clef=bass
K: F
[V:1] G4G4G4 | 
[V:2] G4B4c4 | 
[V:3] G,,4G,3F,E,4 | 
[V:1] F4B8 | 
[V:2] d8d4 | 
[V:3] D,4B,,4G,,4 | 
[V:1] c2d4B2A4 | 
[V:2] c2f3dg4^f2 | 
[V:3] A,,2B,,4G,,2D,4 | 
[V:1] G4z4F3G | 
[V:2] g4f2d4B2 | 
[V:3] G,,4D,8 | 
[V:1] A2B3GG3^FFE | 
[V:2] c2B2G4A4 | 
[V:3] E,2G,4E,2D,4 | 
[V:1] G12 | 
[V:2] G4z4B4 | 
[V:3] G,,4C,2_E,2D,4 | 
[V:1] z4z4B4 | 
[V:2] c4B2B4G2 | 
[V:3] C,4G,,8 | 
[V:1] c4B2B4G2 | 
[V:2] A4G4z4 | 
[V:3] z4G,,8 | 
[V:1] A4G4z4 | 
[V:2] F4G2B3cd2- | 
[V:3] D,4G,,8 | 
[V:1] F4G2B3cd2- | 
[V:2] dcA2B2G2z2B2- | 
[V:3] D,4G,,4B,,2G,,2 | 
[V:1] dcA2B2G2z2B2- | 
[V:2] BAF2G2B2A2d2- | 
[V:3] D,4G,,4z2G,2 | 
[V:1] BAF2G2B2A2d2- | 
[V:2] dcBAG4F4 | 
[V:3] D,4z2G,,2C,2B,,2- | 
[V:1] dcBAG4F4 | 
[V:2] z2f2g2e2d2f2 | 
[V:3] B,,C,D,2G,,2C,2D,4 | 
[V:1] c2B3AA2G3E | 
[V:2] e2d3cA2B2c2 | 
[V:3] C,2G,,2G,2F,2E,3D, | 
[V:1] F12 | 
[V:2] d8z4 | 
[V:3] D,12 | 
[V:1] z4F3GA2G2 | 
[V:2] d4d4c3B | 
[V:3] B,,4D,4F,4 | 
[V:1] B4A2G4^F2 | 
[V:2] G4F2G2A4 | 
[V:3] G,2G,,2z2G,,2D,4 | 
[V:1] G2A3GFED4 | 
[V:2] B2c2A2d4B2 | 
[V:3] G,2F,4D,2B,,4 | 
[V:1] E4D2G4A2 | 
[V:2] c4G4c4 | 
[V:3] A,,4B,,2G,,2F,,4 | 
[V:1] c2B3AA2GFG2 | 
[V:2] A2G2A4B4 | 
[V:3] F,2G,2D,4G,,4 | 
[V:1] A12 | 
[V:2] A4z4d4 | 
[V:3] D,8D,4 | 
[V:1] z4d4c2A2 | 
[V:2] c2A2B4A2d2- | 
[V:3] A,,2C,2G,,4A,,2B,,2 | 
[V:1] B4A2d4B2 | 
[V:2] d2B2c2G2B4 | 
[V:3] G,,4z2G,,6 | 
[V:1] c2G2B4A2d2- | 
[V:2] A2G2z2d2c2d2 | 
[V:3] A,,2B,,2G,,4z2G,2- | 
[V:1] dcd2BAG3^FFE | 
[V:2] B2G4B2A4 | 
[V:3] G,2B,4G,2D,4 | 
[V:1] G12 |]  
[V:2] G12 |]  
[V:3] G,,12 |]  



